!!!COM: Mozart, Wolfgang Amadeus
!!!OTL: Quartet in F Major for oboe, violin, viola and cello
!!!OMD: Adagio
!!!OMV: 2
!!!SCT1: K<sup>1</sup> 370
!!!SCA: Chronologisch-thematisches Verzeichnis sämtlicher Tonwerke Wolfgang Amade Mozarts (L. von Köchel; 1862, 2/1905, 3/1937, 1947)
!!!SCT2: K<sup>6</sup> 370
!!!YOR: Breitkopf & Härtel Edition
!!!ENC: Frances Bennion
!!!CDT: 1756/1/27/-1791/12/5/
!!!OCY: Österreich
!!!YEC: Copyright (c) 1994, 2000 Center for Computer Assisted Research in the Humanities
!!!YEM: Rights to all derivative editions reserved.
!!!YEM: Refer to licensing agreement for further details.
!!!YEN: United States of America
**kern	**kern	**kern	**kern
*k[b-]	*k[b-]	*k[b-]	*k[b-]
*d:	*d:	*d:	*d:
*clefC	*clefF	*clefG	*clefG
*M3/4	*M3/4	*M3/4	*M3/4
4D	4f	4aa	2.r
4F	4a	4dd	.
4G	4dd	4bb-	.
=2	=2	=2	=2
4A	4f	4dd	2.r
4B-	4e	4.cc#	.
4r	4r	.	.
.	.	16gg	.
.	.	16ee	.
=3	=3	=3	=3
2.AA	8r	4dd	2.r
.	8f	.	.
.	8e	8cc#	.
.	8d	8ff	.
.	8c#	8ee	.
.	8e	8g	.
=4	=4	=4	=4
4D	16e	16g	[2.aa
.	16d	16f	.
.	16g	16b-	.
.	16f	16a	.
8r	4f	4a	.
8d	.	.	.
8A	4r	4r	.
8F	.	.	.
=5	=5	=5	=5
4D	8.F	8.A	2.aa_
.	16A	16d	.
4r	8d	8f	.
.	8d	8f	.
8.DD	8d	8f	.
.	8d	8f	.
16FF	.	.	.
=6	=6	=6	=6
4AA	16e	16g	4aa]
.	16d	16f	.
.	16c#	16e	.
.	16d	16f	.
4AA	4c#	4e	32r
.	.	.	32aa
.	.	.	32gg#
.	.	.	32aa
.	.	.	32gg#
.	.	.	32aa
.	.	.	32gg#
.	.	.	32aa
4r	4r	4r	24bb-
.	.	.	24aa
.	.	.	24gg
.	.	.	24ff
.	.	.	24ee
.	.	.	24dd
=7	=7	=7	=7
4AA	8.E	8.A	8.dd
.	16A	16e	32ee
.	.	.	32dd
4r	8e	8g	4cc#
.	8e	8g	.
4AA	8e	8g	4ccc#
.	8e	8g	.
=8	=8	=8	=8
4BB-	8.e	8.g	4ccc#
.	32f	32a	.
.	32e	32g	.
2BB-	4d	4f	2ddd
.	4r	4r	.
=9	=9	=9	=9
8AA	8r	8r	4eee-
8AA	8F	8c	.
8AA	8F	8c	2e-
8AA	8F	8c	.
8AA	8F	8c	.
8AA	8F	8c	.
=10	=10	=10	=10
8BB-	8F	8B-	4d
8BB-	8F	8B-	.
8D	8f	8b-	4aa-
8D	8f	8b-	.
8E-	8e-	8b-	4gg
8E-	8e-	8b-	.
=11	=11	=11	=11
8F	8d	8b-	8.ff
8r	8r	8r	.
.	.	.	16gg
8F	8d	8f	4b-
8r	8r	8r	.
8FF	8A	8e-	4cc
8r	8r	8r	.
=12	=12	=12	=12
4BB-	8B-	8d	4b-
.	16.d	16.f	.
.	32e-	32g	.
4.B-	8d	8f	8r
.	8d	8f	16.ff
.	.	.	32gg
.	8d	8f	8ff
8BB-	8d	8f	8ff
=13	=13	=13	=13
4AA	8r	8r	8ff
.	8e- 8c	16.f	4ccc
.	.	32g	.
4.A	8e- 8c	8f	.
.	8e- 8c	8f	16bb-
.	.	.	16aa
.	8e- 8c	8f	16gg
.	.	.	16ff
8AA	8e- 8c	8f	16gg
.	.	.	16ee-
=14	=14	=14	=14
4BB-	8r	8r	8cc#
.	8d 8B-	16.f	8dd
.	.	32g	.
4.B-	8d 8B-	8f	8r
.	8d 8B-	8f	16.ff
.	.	.	32gg
.	8d 8B-	8f	8ff
8BB-	8d 8B-	8f	8ff
=15	=15	=15	=15
4AA	8r	8r	8ff#
.	8e- 8c	16.f#	4ccc
.	.	32g	.
4.A	8e- 8c	8f#	.
.	8e- 8c	8f#	16bb-
.	.	.	16aa
.	8e- 8c	8f#	16gg
.	.	.	16ff#
8AA	8e- 8c	8f#	16ccc
.	.	.	16ff#
=16	=16	=16	=16
4BB-	8r	8r	8aa
.	8d 8B-	16.g	8gg
.	.	32a	.
4.B-	8d 8B-	8g	8r
.	8d 8B-	8g	8gg
.	8d 8B-	8g	8gg
8BB-	8d 8B-	8g	8gg
=17	=17	=17	=17
2C#	2e 2G	2b-	8.bb-
.	.	.	48aa
.	.	.	48gg
.	.	.	48ff
.	.	.	16ee
.	.	.	16ee
.	.	.	16dd#
.	.	.	16ee
4r	4r	4r	16ff
.	.	.	16ff#
.	.	.	16gg
.	.	.	16gg#
=18	=18	=18	=18
2D	4d	4f	[4aa
.	4f	4a	32aa]
.	.	.	32gg
.	.	.	32ff
.	.	.	32ee
.	.	.	16dd
.	.	.	16dd
4r	4r	4r	16cc#
.	.	.	16dd
.	.	.	16ee
.	.	.	16ff
=19	=19	=19	=19
8G	8r	8r	16ff
.	.	.	16ee
8G	4e	4g	4bb-
8G	.	.	.
8G	8c#	8e	16aa
.	.	.	16gg
8G#	8B	16d	16ff
.	.	16c#	16ee
8G#	8B	16d	16ff
.	.	16f	16dd
=20	=20	=20	=20
4A	4A	8f	8dd
.	.	16e	16cc#
.	.	16f	16dd
16r	16r	16e	4cc#
16A	16c#	16a	.
16G#	16d	16b	.
16G	16e	16cc#	.
16F	16A	16dd	4r
16GG	16C#	16ee	.
16FF	16D	16ff	.
16EE	16E	16gg	.
=21	=21	=21	=21
4DD	4F	4aa	2.r
4F	4a	4dd	.
4G	4dd	4bb-	.
=22	=22	=22	=22
2A	4f	4dd	[6..aa
.	4e	4cc#	.
.	.	.	48aa]
.	.	.	32gg#
.	.	.	32aa
.	.	.	32gg#
.	.	.	32aa
.	.	.	32gg#
.	.	.	32aa
4r	4r	4r	24bb-
.	.	.	24aa
.	.	.	24gg
.	.	.	24ff
.	.	.	24ee
.	.	.	24dd
=23	=23	=23	=23
4AA	8.E	8.A	8.dd
.	16A	16e	32ee
.	.	.	32dd
4r	8e	8g	4cc#
.	8e	8g	.
4AA	8e	8g	4ccc#
.	8e	8g	.
=24	=24	=24	=24
4BB-	4e	4g	4ccc#
2BB	2f	2g#	4.ddd
.	.	.	8ddd#
=25	=25	=25	=25
8C#	8A	8g	4eee
8C#	8A	8g	.
8C#	8B-	8e	2g
8C#	8B-	8e	.
8C#	8A	8e	.
8C#	8A	8e	.
=26	=26	=26	=26
8D	8A	8d	4f
8r	8f	8aa	.
8E	8r	8r	4ccc#
8r	8e	8gg	.
8F	8r	8r	8.ddd
8r	8d	8ff	.
.	.	.	16aa
=27	=27	=27	=27
8G	16r	16r	8bb-
.	16g	16b-	.
8G	16f	16a	16aa
.	16e	16g	16gg
8A	8d	8f	16ff
.	.	.	16aa
8A	8f	8a	16r
.	.	.	16dd
8AA	8e	8g	8.ee
8AA	16d	16f	.
.	16c#	16e	32dd
.	.	.	32ee
=28	=28	=28	=28
4D	4d	4f	8dd
.	.	.	16.dd
.	.	.	32ee-
8r	8r	8r	8dd
8c	16.f#	16.a 16.d	8dd
.	32g	32b-	.
8c	8f#	8a	8r
8c	8f#	8a 8d	8dd
=29	=29	=29	=29
4B-	4g	4b- 4d	8r
.	.	.	16.dd
.	.	.	32ee-
8r	8r	8r	8dd
8F#	16.a	16.cc 16.d	8dd
.	32b-	32dd	.
8F#	8a	8cc	8r
8F#	8a	8cc 8d	8ddd
=30	=30	=30	=30
8G	16g	8b- 8d	2ddd
.	16dd	.	.
8G	16dd	8bb-	.
.	16dd	.	.
8A	16dd	8aa	.
.	16dd	.	.
8B-	16dd	8gg	.
.	16dd	.	.
8A	16dd	8ff	4r
.	16dd	.	.
8G#	16dd	8ee	.
.	16dd	.	.
=31	=31	=31	=31
4A	4dd	4ff	8.aa
.	.	.	16dd
2r	2r	2r	4.ee
.	.	.	16dd
.	.	.	16ee
=32	=32	=32	=32
4D	8d	8d	4dd
.	16.f	16.a	.
.	32g	32b-	.
2r	8f	8a	8r
.	8f	8a	16.aa
.	.	.	32bb-
.	8f	8a	8aa
.	8f	8a	8aa
=33	=33	=33	=33
2.A	8r	8r	8aa
.	16.c#	16.e	4bb-
.	32d	32f	.
.	8c#	8e	.
.	8c#	8e	16aa
.	.	.	16gg
.	8d	8f	16ff
.	.	.	16ee
.	8e	8g	16dd
.	.	.	16cc#
=34	=34	=34	=34
4d	8d	8f	8ee
.	16.A	16.f	8dd
.	32B-	32g	.
2r	8A	8f	8r
.	8A	8f	16.aa
.	.	.	32bb-
.	8A	8f	8aa
.	8A	8f	8aa
=35	=35	=35	=35
2.AA	8r	8r	8aa
.	16.E	16.c#	4bb-
.	32F	32d	.
.	8E	8c#	.
.	8E	8c#	16aa
.	.	.	16gg
.	8F	8d	16ff
.	.	.	16ee
.	8G	8e	16dd
.	.	.	16cc#
=36	=36	=36	=36
4D	4F	4d	4dd
4AA	4A	4dd	4ff
4FF	4f	4d	4aa
=37	=37	=37	=37
2DD	2F	2A	2ddd
4r	4r	4r	4r
==	==	==	==
*-	*-	*-	*-
!!!RWG1: This file contains only pitch and duration data.
!!!RWG2: Transposing instruments are not transposed.
!!!RWG3: Spines may have incompatible meters.
!!!RWG4: Durations of rests and tied notes may be interpreted.
!!!RWG: Key is interpreted using the Humdrum key tool.
!!!AFT: stage1
!!!END: 1997/04/15
!!!KEY: 616904370
!!!EMD: Converted from MuseData to Humdrum Dec 16, 2000, by Andreas Kornstaedt using muse2kern.
!!!EMD: Manual editing by Craig Sapp, Nov 2001
